X:5037
T:Patrick Band. HSJJ.111
O:england
M:9/8
L:1/8
Q:120
S:HSJ Jackson,Wyresdale,Lancs.1823
R:Slip Jig
A:Lancashire
H:1823
K:G
Bcd def g2d|cde efga2c|Bcd Bcd gdB|cde ABc BAG:|
|:Bcd dcBe2c|Bcd dcBc2A|Bcd dcB efg|fgaA2c BAG:|]


